X: 8152
T: Cook In The Kitchen, The
R: jig
M: 6/8
K: Gmajor
|:DGG GFG|ABA ABc|d2B c2A|B2G A2F|
DGG GFG|ABA ABc|d2B cAF|1 G3 G3:|2 G3 def||
|:g2g gag|faf fed|e2d efg|fag fed|
g3 Bcd|e2A Ace|d2B cAF|1 G3 def:|2 G3 G3||

